X:4
T:Erinnerungs-Polka EbBbAb (5letras) cf. CGF
M:2/4
L:1/8
K:Ebmaj%%MIDI gchordon
"Eb"BB/2e/2 gb | "Fm"cc/2f/2 ac' | "Bb7"bd d/2c/2d | "Eb"eB B/2=A/2B | BB/2e/2 gb | "Fm"cc/2f/2 ac' | 
"Bb7"Bd d/2c/2d | "Eb"ee ez :| [K:Bbmaj] "Bb"f/2g/2f/2d/2 "F7"e/2f/2e/2c/2 | "Bb"dbf2 | "F7"fe e/2d/2e | "Bb"gf f/2=e/2f | 
f/2g/2f/2d/2 "F7"e/2f/2e/2c/2 | "Bb"dbf2 | "F7"fc/2d/2 ec | "Bb"BB Bz || [K:Ebmaj] "Bb7"ff/2f/2 fg/2a/2 | "Eb"c'b be/2g/2 | 
"Bb7"bf/2g/2 ad/2f/2 | "Eb"ee ez |: [K:Abmaj] "Db"aa aa | "Eb7"aa gf | "Ab"fee2 | ze f>e | 
"Eb7"edd2 |1 zd e>d | "Ab"dcc2 | zA ce :|2 z"Bb7"a gf | "Eb7"ee/2e/2 ee/2e/2 | ee ee ||
"Eb7".g2.b2 | "Ab".a2.c'2 | "Eb7"c'b b/2a/2g | "Ab"d'c' c'/2b/2a | "Eb7".g2.b2 | "Ab".a2.c'2 | "Eb7"c'b b/2a/2g | "Ab"aa az |] 

